web/ui/src/components/theme/message/svgs/error.svg

<svg height="16" viewBox="0 0 16 16" width="16" xmlns="http://www.w3.org/2000/svg"><g fill="none" fill-rule="evenodd"><path d="m0 0h15.98439v15.98439h-15.98439z" fill="#000" fill-rule="nonzero" opacity="0"/><path d="m13.6438188 2.34057143c-3.1212305-3.12091203-8.18146029-3.12073991-11.30247849.00038444-3.12101819 3.12112435-3.12101819 8.18135413 0 11.30247853 3.1210182 3.1211243 8.18124799 3.1212964 11.30247849.0003844 1.4990037-1.4988507 2.3411481-3.5318204 2.3411481-5.65162368 0-2.11980324-.8421444-4.15277293-2.3411481-5.65162369z" fill="#ff4d4f"/><path d="m10.738085 9.93030244c.0759983.07554476.118732.17827796.118732.28543556s-.0427337.2098908-.118732.2854355l-.2426202.2426202c-.0755447.0759983-.178278.118732-.2854355.118732-.1071576 0-.2098908-.0427337-.28543557-.118732l-1.93239861-1.94381601-1.93810732 1.93810731c-.07554473.0759983-.17827797.118732-.28543554.118732s-.20989081-.0427337-.28543554-.118732l-.24262021-.2426202c-.07599827-.0755447-.11873199-.178278-.11873199-.2854355 0-.1071576.04273372-.2098908.11873199-.28543557l1.94381604-1.93239861-1.93810732-1.93810732c-.07599828-.07554473-.118732-.17827797-.118732-.28543554s.04273372-.20989081.118732-.28543554l.24262021-.24262021c.07554473-.07599827.17827797-.11873199.28543554-.11873199.10715756 0 .2098908.04273372.28543553.11873199l1.93239861 1.94381604 1.93810732-1.93810732c.07554476-.07599828.17827796-.118732.28543556-.118732s.2098908.04273372.2854355.118732l.2426202.24262021c.0759983.07554473.118732.17827797.118732.28543554 0 .10715756-.0427337.2098908-.118732.28543553l-1.94381601 1.93239861z" fill="#fff"/></g></svg>

<?xml version="1.0" encoding="UTF-8"?>
<svg width="16px" height="16px" viewBox="0 0 16 16" version="1.1" xmlns="http://www.w3.org/2000/svg" xmlns:xlink="http://www.w3.org/1999/xlink">
    <title>system_icon_erro_default</title>
    <g id="页面-1" stroke="none" stroke-width="1" fill="none" fill-rule="evenodd">
        <g id="系统设计规范" transform="translate(-1585.000000, -5293.000000)">
            <g id="system_icon_erro_default" transform="translate(1585.000000, 5293.000000)">
                <rect id="矩形" fill="#000000" fill-rule="nonzero" opacity="0" x="0" y="0" width="15.9843902" height="15.9843902"></rect>
                <path d="M13.6438188,2.34057143 C10.5225883,-0.780340602 5.46235851,-0.780168484 2.34134031,2.34095587 C-0.779677877,5.46208022 -0.779677877,10.52231 2.34134031,13.6434344 C5.46235851,16.7645587 10.5225883,16.7647308 13.6438188,13.6438188 C15.1428225,12.1449681 15.9849669,10.1119984 15.9849669,7.99219512 C15.9849669,5.87239188 15.1428225,3.83942219 13.6438188,2.34057143 Z" id="形状" fill="#FF4D4F"></path>
                <path d="M10.738085,9.93030244 C10.8140833,10.0058472 10.856817,10.1085804 10.856817,10.215738 C10.856817,10.3228956 10.8140833,10.4256288 10.738085,10.5011735 L10.4954648,10.7437937 C10.4199201,10.819792 10.3171868,10.8625257 10.2100293,10.8625257 C10.1028717,10.8625257 10.0001385,10.819792 9.92459373,10.7437937 L7.99219512,8.79997769 L6.0540878,10.738085 C5.97854307,10.8140833 5.87580983,10.856817 5.76865226,10.856817 C5.66149469,10.856817 5.55876145,10.8140833 5.48321672,10.738085 L5.24059651,10.4954648 C5.16459824,10.4199201 5.12186452,10.3171868 5.12186452,10.2100293 C5.12186452,10.1028717 5.16459824,10.0001385 5.24059651,9.92459373 L7.18441255,7.99219512 L5.24630523,6.0540878 C5.17030695,5.97854307 5.12757323,5.87580983 5.12757323,5.76865226 C5.12757323,5.66149469 5.17030695,5.55876145 5.24630523,5.48321672 L5.48892544,5.24059651 C5.56447017,5.16459824 5.66720341,5.12186452 5.77436098,5.12186452 C5.88151854,5.12186452 5.98425178,5.16459824 6.05979651,5.24059651 L7.99219512,7.18441255 L9.93030244,5.24630523 C10.0058472,5.17030695 10.1085804,5.12757323 10.215738,5.12757323 C10.3228956,5.12757323 10.4256288,5.17030695 10.5011735,5.24630523 L10.7437937,5.48892544 C10.819792,5.56447017 10.8625257,5.66720341 10.8625257,5.77436098 C10.8625257,5.88151854 10.819792,5.98425178 10.7437937,6.05979651 L8.79997769,7.99219512 L10.738085,9.93030244 Z" id="路径" fill="#FFFFFF"></path>
            </g>
        </g>
    </g>
</svg>
